X:35
T:Vals efter Petter Olas Anna
R:vals
H:efter Petter Olas Anna, J\"at. F\"orsta reprisen \"aven i Am.
A:Sm{\aa}land
B:Sm{\aa}l\"andsk musiktradition II:99
Z:id:hn-vals-35
M:3/4
L:1/8
K:A
a2 g2 a2 | e4 c2 | ed BG BG | A2 c2 e2 | a2 g2 a2 | e4 c2 |
ed BG BG | A4 z2 :||: A2 =c2 c2 | d=c BA G2 | G2 B2 d2 |
d=c Bc A2 | A2 =c2 c2 | d=c BA G2 | GB d=c Bc | A4 z2 :|
<end>